!!!SOCIAL_FUNCTION:	bird dance songs
!!!PDT:	1956
!!!OTL: No_123_Quail_Dance_Song_(b).krn
!!!LANG: Non-Tone
!!!LING_GROUP: Muskogean
!!!REG: Florida
**kern
*staff1
=1-
=
*clefF4
*k[b-]
*M2/4
8c\L
8G\J
8A\
8r
=2
(8c\L
8A\J)
(8c\L
8A\J)
=3||
*M3/4
8F\L
8B-\J
8A\L
8F\J
8F\
8r
=4
4F\
8B-\
16r
16F\
4F\
=5:|!
*M7/8
4F\
8B-\L
8A\
8F\J
4F\
=6:|!
=
*M7/8
8r
[8F\L
8F\]
8B-\
(8A\
8F\)
8F\J
=7:|!
*M7/8
8r
8F\L
8B-\
(8A\
8F\)
8F\J
8r
=8:|!
*M7/8
4F\
8B-\L
8A\
8F\J
4F\
==:|!
*-
